static/images/pieces/shogun/merida/blue/bA.svg

<svg clip-rule="evenodd" fill-rule="evenodd" height="177.17" image-rendering="optimizeQuality" shape-rendering="geometricPrecision" viewBox="0 0 50 50" width="177.17" xmlns="http://www.w3.org/2000/svg" xmlns:xlink="http://www.w3.org/1999/xlink"><linearGradient id="a"><stop offset="0" stop-color="#fff"/><stop offset="1" stop-color="#e6e6e6"/></linearGradient><linearGradient id="b" gradientUnits="userSpaceOnUse" x1="1.793643" x2="12.63324" y1="74.318817" y2="73.869385"><stop offset="0" stop-color="#fff"/><stop offset="1" stop-color="#b3b3b3"/></linearGradient><linearGradient id="c" gradientUnits="userSpaceOnUse" x1="-2.508196" x2="1.752626" xlink:href="#a" y1="74.568955" y2="74.568955"/><linearGradient id="d"><stop offset="0" stop-color="#ffe680"/><stop offset="1" stop-color="#b89200"/></linearGradient><linearGradient id="e" gradientUnits="userSpaceOnUse" x1="-8.845038" x2="7.222165" xlink:href="#d" y1="91.81409" y2="91.81409"/><linearGradient id="f" gradientUnits="userSpaceOnUse" x1="-5.962714" x2="4.815122" xlink:href="#d" y1="85.976685" y2="85.976685"/><linearGradient id="g" gradientUnits="userSpaceOnUse" x1="-2.455736" x2="1.805086" xlink:href="#a" y1="74.568955" y2="74.568955"/><linearGradient id="h" gradientUnits="userSpaceOnUse" x1="-5.811293" x2="4.527886" y1="74.703705" y2="74.703705"><stop offset="0" stop-color="#ffe680"/><stop offset="1" stop-color="#ffe680" stop-opacity="0"/></linearGradient><linearGradient id="i" gradientUnits="userSpaceOnUse" x1="-6.049632" x2="4.810146" xlink:href="#d" y1="72.505302" y2="72.505302"/><linearGradient id="j" gradientUnits="userSpaceOnUse" x1="-5.811293" x2="4.527886" xlink:href="#d" y1="74.703705" y2="74.703705"/><linearGradient id="k" gradientUnits="userSpaceOnUse" x1="-6.499335" x2="4.384012" xlink:href="#d" y1="72.549019" y2="72.549019"/><linearGradient id="l" gradientUnits="userSpaceOnUse" x1="-6.027205" x2="5.717554" xlink:href="#d" y1="68.83271" y2="68.83271"/><linearGradient id="m" gradientUnits="userSpaceOnUse" x1="-5.357782" x2="4.888869" xlink:href="#d" y1="72.461586" y2="72.461586"/><linearGradient id="n" gradientUnits="userSpaceOnUse" x1="-5.652663" x2="4.781251" xlink:href="#d" y1="80.305206" y2="80.305206"/><g fill="url(#b)" transform="translate(25.211864 -48.303673)"><path d="m.5859365 56.17703c.7960066-1.020015-.3788487-2.345177-1.3068235-2.345578-.7032446.06761-2.4032857 1.12243-1.3068233 2.479612-1.5679946 6.247019-4.6143343 11.207329-10.9907077 13.269271.772685 5.835682 4.7398273 9.845965 7.5058526 14.542581-.402536.380608-1.2797124.749544-1.8262037 1.189546.084992.995123.2798869 1.916985 1.2900669 2.295318l-1.8094413 2.479607s-1.3033945-.221657-1.7187392.177365c-.26616.255694-.1577336 1.095956-.1577336 1.095956l-2.6806577 2.546622h19.0360371 4.0846579l-2.2785577-2.479606s.06342-.993607-.268067-1.273321c-.4442301-.374822-1.7424273-.06704-1.7424273-.06704l-1.8094474-2.747666c.7128332-.34693 1.4409757-.672792 1.4576084-1.976998-.529628-.512006-1.1706496-.799362-1.6586569-1.172787 2.4587172-4.724947 6.4543829-8.785262 6.8356849-14.408548-5.1812397-3.053521-9.3828802-6.997612-10.6556275-13.604334z" fill="#1f1a17" stroke="#1f1a17" stroke-width="1.693289"/><path d="m-4.2776582 87.274357c-1.2293684-.970178-1.2467044-1.677847-.058033-2.542373l7.587461-.105932c1.3453266.890535 1.3025035 1.573618.068806 2.701271z" fill="url(#f)"/><path d="m-6.6209876 90.559427-2.823294 2.50933h17.1907845l-2.541118-2.50933z" fill="url(#e)"/><g stroke-width="1.693289"><circle cx="-5.252363" cy="72.549019" fill="#f9df75" r=".699949" stroke="url(#k)" stroke-linecap="square"/><circle cx="3.754255" cy="72.461586" fill="#be990b" r=".699949" stroke="url(#m)" stroke-linecap="square"/><circle cx="-.810248" cy="68.83271" fill="#dfc046" r=".699949" stroke="url(#l)" stroke-linecap="square"/><circle cx="-.810233" cy="80.305206" fill="url(#c)" r=".699949" stroke="url(#n)" stroke-linecap="square"/><path d="m-4.3429314 72.103065h7.2577571v.80447h-7.2752471z" fill="url(#g)" stroke="url(#i)"/><path d="m-.5134593 69.856275v9.75254h-.5935622v-9.77604z" fill="url(#h)" stroke="url(#j)"/></g></g></svg>

<?xml version="1.0" encoding="UTF-8" standalone="no"?>
<svg
   xmlns:dc="http://purl.org/dc/elements/1.1/"
   xmlns:cc="http://creativecommons.org/ns#"
   xmlns:rdf="http://www.w3.org/1999/02/22-rdf-syntax-ns#"
   xmlns:svg="http://www.w3.org/2000/svg"
   xmlns="http://www.w3.org/2000/svg"
   xmlns:xlink="http://www.w3.org/1999/xlink"
   xmlns:sodipodi="http://sodipodi.sourceforge.net/DTD/sodipodi-0.dtd"
   xmlns:inkscape="http://www.inkscape.org/namespaces/inkscape"
   width="177.17"
   height="177.17"
   shape-rendering="geometricPrecision"
   image-rendering="optimizeQuality"
   fill-rule="evenodd"
   clip-rule="evenodd"
   viewBox="0 0 50 50"
   version="1.1"
   id="svg7104"
   sodipodi:docname="bAshogun.svg"
   inkscape:version="0.92.4 (5da689c313, 2019-01-14)">
  <metadata
     id="metadata7108">
    <rdf:RDF>
      <cc:Work
         rdf:about="">
        <dc:format>image/svg+xml</dc:format>
        <dc:type
           rdf:resource="http://purl.org/dc/dcmitype/StillImage" />
        <dc:title></dc:title>
      </cc:Work>
    </rdf:RDF>
  </metadata>
  <sodipodi:namedview
     pagecolor="#ffffff"
     bordercolor="#666666"
     borderopacity="1"
     objecttolerance="10"
     gridtolerance="10"
     guidetolerance="10"
     inkscape:pageopacity="0"
     inkscape:pageshadow="2"
     inkscape:window-width="1920"
     inkscape:window-height="1017"
     id="namedview7106"
     showgrid="false"
     inkscape:object-nodes="false"
     inkscape:zoom="0.9419044"
     inkscape:cx="407.91192"
     inkscape:cy="-123.54158"
     inkscape:window-x="1912"
     inkscape:window-y="-8"
     inkscape:window-maximized="1"
     inkscape:current-layer="svg7104"
     inkscape:snap-nodes="false" />
  <defs
     id="defs7098">
    <linearGradient
       inkscape:collect="always"
       id="linearGradient13395">
      <stop
         style="stop-color:#ffe680;stop-opacity:1;"
         offset="0"
         id="stop13391" />
      <stop
         style="stop-color:#ffe680;stop-opacity:0;"
         offset="1"
         id="stop13393" />
    </linearGradient>
    <linearGradient
       inkscape:collect="always"
       id="linearGradient33768">
      <stop
         style="stop-color:#ffffff;stop-opacity:1"
         offset="0"
         id="stop33764" />
      <stop
         style="stop-color:#e6e6e6;stop-opacity:1"
         offset="1"
         id="stop33766" />
    </linearGradient>
    <linearGradient
       inkscape:collect="always"
       id="linearGradient32542">
      <stop
         style="stop-color:#ffffff;stop-opacity:1"
         offset="0"
         id="stop32538" />
      <stop
         style="stop-color:#b3b3b3;stop-opacity:1"
         offset="1"
         id="stop32540" />
    </linearGradient>
    <linearGradient
       id="0"
       x1="21.405"
       x2="77.64"
       gradientUnits="userSpaceOnUse"
       gradientTransform="matrix(0.84732229,0,0,0.84860456,3.1918211,-2.021577)">
      <stop
         stop-color="#fff"
         id="stop7093" />
      <stop
         offset="1"
         stop-color="#fff"
         stop-opacity="0"
         id="stop7095" />
    </linearGradient>
    <clipPath
       clipPathUnits="userSpaceOnUse"
       id="clipPath8236">
      <rect
         style="opacity:1;fill:#d40000;fill-opacity:1;stroke:#d40000;stroke-width:0.36687925;stroke-linecap:square;stroke-linejoin:miter;stroke-miterlimit:4;stroke-dasharray:none;stroke-opacity:1;paint-order:normal"
         id="rect8238"
         width="56.567795"
         height="26.271185"
         x="-1.4830509"
         y="-7.2033896" />
    </clipPath>
    <linearGradient
       id="0-7"
       x1="21.375999"
       x2="77.639999"
       gradientUnits="userSpaceOnUse">
      <stop
         stop-color="#fff"
         id="stop7670" />
      <stop
         offset="1"
         stop-color="#fff"
         stop-opacity="0"
         id="stop7672" />
    </linearGradient>
    <clipPath
       clipPathUnits="userSpaceOnUse"
       id="clipPath8276">
      <rect
         style="opacity:1;fill:#d40000;fill-opacity:1;stroke:#d40000;stroke-width:0.36687925;stroke-linecap:square;stroke-linejoin:miter;stroke-miterlimit:4;stroke-dasharray:none;stroke-opacity:1;paint-order:normal"
         id="rect8278"
         width="56.567795"
         height="26.271185"
         x="-2.5423729"
         y="-1.9067795" />
    </clipPath>
    <linearGradient
       id="0-1"
       x1="21.375999"
       x2="77.639999"
       gradientUnits="userSpaceOnUse">
      <stop
         stop-color="#fff"
         id="stop7670-0" />
      <stop
         offset="1"
         stop-color="#fff"
         stop-opacity="0"
         id="stop7672-6" />
    </linearGradient>
    <clipPath
       clipPathUnits="userSpaceOnUse"
       id="clipPath5191">
      <rect
         style="opacity:1;fill:#d40000;fill-opacity:1;stroke:#000000;stroke-width:0.2045171;stroke-linecap:square;stroke-linejoin:miter;stroke-miterlimit:4;stroke-dasharray:none;stroke-opacity:1;paint-order:normal"
         id="rect5193"
         width="35.162529"
         height="15.671"
         x="7.2068729"
         y="4.0289068"
         clip-path="none" />
    </clipPath>
    <linearGradient
       id="0-3"
       x1="21.375999"
       x2="77.639999"
       gradientUnits="userSpaceOnUse">
      <stop
         stop-color="#fff"
         id="stop4571" />
      <stop
         offset="1"
         stop-color="#fff"
         stop-opacity="0"
         id="stop4573" />
    </linearGradient>
    <linearGradient
       inkscape:collect="always"
       xlink:href="#linearGradient32542"
       id="linearGradient32544"
       x1="1.7936434"
       y1="74.318817"
       x2="12.63324"
       y2="73.869385"
       gradientUnits="userSpaceOnUse" />
    <linearGradient
       inkscape:collect="always"
       xlink:href="#linearGradient33768"
       id="linearGradient33814"
       gradientUnits="userSpaceOnUse"
       x1="-0.058763873"
       y1="118.91294"
       x2="4.2020578"
       y2="118.91294"
       gradientTransform="translate(-2.449432,-44.343985)" />
    <linearGradient
       id="linearGradient940"
       inkscape:collect="always">
      <stop
         id="stop936"
         offset="0"
         style="stop-color:#ffe680;stop-opacity:1" />
      <stop
         id="stop938"
         offset="1"
         style="stop-color:#b89200;stop-opacity:1" />
    </linearGradient>
    <linearGradient
       inkscape:collect="always"
       xlink:href="#linearGradient940"
       id="linearGradient13379"
       x1="-8.8450384"
       y1="91.893539"
       x2="7.2221651"
       y2="91.893539"
       gradientUnits="userSpaceOnUse"
       gradientTransform="translate(0,-0.07944915)" />
    <linearGradient
       inkscape:collect="always"
       xlink:href="#linearGradient940"
       id="linearGradient13387"
       x1="-5.9627137"
       y1="85.976685"
       x2="4.8151217"
       y2="85.976685"
       gradientUnits="userSpaceOnUse" />
    <linearGradient
       inkscape:collect="always"
       xlink:href="#linearGradient33768"
       id="linearGradient13389"
       gradientUnits="userSpaceOnUse"
       gradientTransform="translate(-2.3969721,-44.343985)"
       x1="-0.058763873"
       y1="118.91294"
       x2="4.2020578"
       y2="118.91294" />
    <linearGradient
       inkscape:collect="always"
       xlink:href="#linearGradient13395"
       id="linearGradient13397"
       x1="-5.8112926"
       y1="74.703705"
       x2="4.5278864"
       y2="74.703705"
       gradientUnits="userSpaceOnUse" />
    <linearGradient
       inkscape:collect="always"
       xlink:href="#linearGradient940"
       id="linearGradient13405"
       x1="-6.0496321"
       y1="72.505302"
       x2="4.8101459"
       y2="72.505302"
       gradientUnits="userSpaceOnUse" />
    <linearGradient
       inkscape:collect="always"
       xlink:href="#linearGradient940"
       id="linearGradient13407"
       x1="-5.8112926"
       y1="74.703705"
       x2="4.5278864"
       y2="74.703705"
       gradientUnits="userSpaceOnUse" />
    <linearGradient
       inkscape:collect="always"
       xlink:href="#linearGradient940"
       id="linearGradient13415"
       x1="-6.4993348"
       y1="72.549019"
       x2="4.3840117"
       y2="72.549019"
       gradientUnits="userSpaceOnUse" />
    <linearGradient
       inkscape:collect="always"
       xlink:href="#linearGradient940"
       id="linearGradient13417"
       x1="-6.027205"
       y1="68.83271"
       x2="5.7175536"
       y2="68.83271"
       gradientUnits="userSpaceOnUse" />
    <linearGradient
       inkscape:collect="always"
       xlink:href="#linearGradient940"
       id="linearGradient13419"
       x1="-5.3577819"
       y1="72.461586"
       x2="4.8888688"
       y2="72.461586"
       gradientUnits="userSpaceOnUse" />
    <linearGradient
       inkscape:collect="always"
       xlink:href="#linearGradient940"
       id="linearGradient13421"
       x1="-5.6526632"
       y1="80.305206"
       x2="4.781251"
       y2="80.305206"
       gradientUnits="userSpaceOnUse" />
  </defs>
  <g
     id="g32536"
     style="fill:url(#linearGradient32544);fill-opacity:1"
     transform="translate(25.211864,-48.303673)">
    <path
       sodipodi:nodetypes="ccccccccacccccaccccccc"
       inkscape:connector-curvature="0"
       id="path31799"
       d="m 0.5859365,56.17703 c 0.7960066,-1.020015 -0.3788487,-2.345177 -1.3068235,-2.345578 -0.7032446,0.06761 -2.4032857,1.12243 -1.3068233,2.479612 -1.5679946,6.247019 -4.6143343,11.207329 -10.9907077,13.269271 0.772685,5.835682 4.7398273,9.845965 7.5058526,14.542581 -0.402536,0.380608 -1.2797124,0.749544 -1.8262037,1.189546 0.084992,0.995123 0.2798869,1.916985 1.2900669,2.295318 l -1.8094413,2.479607 c 0,0 -1.3033945,-0.221657 -1.7187392,0.177365 -0.26616,0.255694 -0.1577336,1.095956 -0.1577336,1.095956 L -12.415274,93.90733 H 6.6207631 10.705421 L 8.4268633,91.427724 c 0,0 0.06342,-0.993607 -0.268067,-1.273321 C 7.7145662,89.779581 6.416369,90.087363 6.416369,90.087363 L 4.6069216,87.339697 C 5.3197548,86.992767 6.0478973,86.666905 6.06453,85.362699 5.534902,84.850693 4.8938804,84.563337 4.4058731,84.189912 6.8645903,79.464965 10.860256,75.40465 11.241558,69.781364 6.0603183,66.727843 1.8586778,62.783752 0.5859305,56.17703 Z"
       style="fill:#1f1a17;fill-opacity:1;stroke:#1f1a17;stroke-width:1.69328892;stroke-linecap:butt;stroke-linejoin:miter;stroke-miterlimit:4;stroke-dasharray:none;stroke-opacity:1" />
    <path
       inkscape:connector-curvature="0"
       id="path31801"
       d="m -4.2776582,87.274357 c -1.2293684,-0.970178 -1.2467044,-1.677847 -0.058033,-2.542373 l 7.587461,-0.105932 c 1.3453266,0.890535 1.3025035,1.573618 0.068806,2.701271 z"
       style="fill:url(#linearGradient13387);fill-opacity:1;stroke:none;stroke-width:0.56305051px;stroke-linecap:butt;stroke-linejoin:miter;stroke-opacity:1"
       sodipodi:nodetypes="ccccc" />
    <path
       inkscape:connector-curvature="0"
       id="path31803"
       d="m -6.6209876,90.559427 -2.823294,2.50933 H 7.7465029 l -2.541118,-2.50933 z"
       style="fill:url(#linearGradient13379);fill-opacity:1;stroke:none;stroke-width:0.56305051px;stroke-linecap:butt;stroke-linejoin:miter;stroke-opacity:1"
       sodipodi:nodetypes="ccccc" />
    <circle
       style="opacity:1;fill:#f9df75;fill-opacity:1;stroke:url(#linearGradient13415);stroke-width:1.69328892;stroke-linecap:square;stroke-linejoin:miter;stroke-miterlimit:4;stroke-dasharray:none;stroke-opacity:1;paint-order:normal"
       id="path29818-2"
       cx="-5.2523627"
       cy="72.549019"
       r="0.69994909" />
    <circle
       style="opacity:1;fill:#be990b;fill-opacity:1;stroke:url(#linearGradient13419);stroke-width:1.69328892;stroke-linecap:square;stroke-linejoin:miter;stroke-miterlimit:4;stroke-dasharray:none;stroke-opacity:1;paint-order:normal"
       id="path29818-3-6"
       cx="3.7542548"
       cy="72.461586"
       r="0.69994909" />
    <circle
       style="opacity:1;fill:#dfc046;fill-opacity:1;stroke:url(#linearGradient13417);stroke-width:1.69328892;stroke-linecap:square;stroke-linejoin:miter;stroke-miterlimit:4;stroke-dasharray:none;stroke-opacity:1;paint-order:normal"
       id="path29818-9-6"
       cx="-0.81024778"
       cy="68.83271"
       r="0.69994909" />
    <circle
       style="opacity:1;fill:url(#linearGradient33814);fill-opacity:1;stroke:url(#linearGradient13421);stroke-width:1.69328892;stroke-linecap:square;stroke-linejoin:miter;stroke-miterlimit:4;stroke-dasharray:none;stroke-opacity:1;paint-order:normal"
       id="path29818-99-3"
       cx="-0.810233"
       cy="80.305206"
       r="0.69994909" />
    <path
       style="fill:url(#linearGradient13389);fill-opacity:1;stroke:url(#linearGradient13405);stroke-width:1.69328892;stroke-linecap:butt;stroke-linejoin:miter;stroke-miterlimit:4;stroke-dasharray:none;stroke-opacity:1"
       d="m -4.3429314,72.103065 h 7.2577571 v 0.80447 h -7.2752471 z"
       id="path29847-7"
       inkscape:connector-curvature="0" />
    <path
       style="fill:url(#linearGradient13397);fill-opacity:1;stroke:url(#linearGradient13407);stroke-width:1.69328892;stroke-linecap:butt;stroke-linejoin:miter;stroke-miterlimit:4;stroke-dasharray:none;stroke-opacity:1"
       d="m -0.5134593,69.856275 v 9.75254 h -0.5935622 v -9.77604 z"
       id="path29847-3-1"
       inkscape:connector-curvature="0" />
  </g>
</svg>
